src/lib/packages/icons/src/assets/line/id-card.svg

<svg width="24" height="24" viewBox="0 0 24 24" fill="none" xmlns="http://www.w3.org/2000/svg">
<path d="M9.00598 12.05C7.68298 12.05 6.60699 10.973 6.60699 9.65002C6.60699 8.32702 7.68298 7.25 9.00598 7.25C10.329 7.25 11.406 8.32702 11.406 9.65002C11.406 10.973 10.329 12.05 9.00598 12.05ZM9.00598 8.75C8.50998 8.75 8.10699 9.15402 8.10699 9.65002C8.10699 10.146 8.50998 10.55 9.00598 10.55C9.50198 10.55 9.90601 10.146 9.90601 9.65002C9.90601 9.15402 9.50198 8.75 9.00598 8.75ZM12 16.75C11.586 16.75 11.25 16.414 11.25 16V15.697C11.25 14.977 10.753 14.25 9.64203 14.25H8.35901C7.24801 14.25 6.75098 14.977 6.75098 15.697V16C6.75098 16.414 6.41498 16.75 6.00098 16.75C5.58698 16.75 5.25098 16.414 5.25098 16V15.697C5.25098 14.233 6.31801 12.75 8.35901 12.75H9.64203C11.683 12.75 12.75 14.232 12.75 15.697V16C12.75 16.414 12.414 16.75 12 16.75ZM18 20.25H6C3.582 20.25 2.25 18.918 2.25 16.5V7.5C2.25 5.082 3.582 3.75 6 3.75H18C20.418 3.75 21.75 5.082 21.75 7.5V16.5C21.75 18.918 20.418 20.25 18 20.25ZM6 5.25C4.423 5.25 3.75 5.923 3.75 7.5V16.5C3.75 18.077 4.423 18.75 6 18.75H18C19.577 18.75 20.25 18.077 20.25 16.5V7.5C20.25 5.923 19.577 5.25 18 5.25H6ZM18.75 9.93799C18.75 9.52399 18.414 9.18799 18 9.18799H14C13.586 9.18799 13.25 9.52399 13.25 9.93799C13.25 10.352 13.586 10.688 14 10.688H18C18.414 10.688 18.75 10.352 18.75 9.93799ZM18.7 14C18.7 13.586 18.364 13.25 17.95 13.25H14.95C14.536 13.25 14.2 13.586 14.2 14C14.2 14.414 14.536 14.75 14.95 14.75H17.95C18.364 14.75 18.7 14.414 18.7 14Z" fill="currentColor"/>
</svg>

<svg xmlns="http://www.w3.org/2000/svg" width="24" height="24" fill="none"><path fill="currentColor" d="M9.006 12.05a2.402 2.402 0 0 1-2.399-2.4c0-1.323 1.076-2.4 2.399-2.4s2.4 1.077 2.4 2.4-1.077 2.4-2.4 2.4Zm0-3.3a.9.9 0 1 0 .003 1.801.9.9 0 0 0-.003-1.801Zm2.994 8a.75.75 0 0 1-.75-.75v-.303c0-.72-.497-1.447-1.608-1.447H8.359c-1.111 0-1.608.727-1.608 1.447V16a.75.75 0 0 1-1.5 0v-.303c0-1.464 1.067-2.947 3.108-2.947h1.283c2.041 0 3.108 1.482 3.108 2.947V16a.75.75 0 0 1-.75.75Zm6 3.5H6c-2.418 0-3.75-1.332-3.75-3.75v-9c0-2.418 1.332-3.75 3.75-3.75h12c2.418 0 3.75 1.332 3.75 3.75v9c0 2.418-1.332 3.75-3.75 3.75Zm-12-15c-1.577 0-2.25.673-2.25 2.25v9c0 1.577.673 2.25 2.25 2.25h12c1.577 0 2.25-.673 2.25-2.25v-9c0-1.577-.673-2.25-2.25-2.25H6Zm12.75 4.688a.75.75 0 0 0-.75-.75h-4a.75.75 0 0 0 0 1.5h4a.75.75 0 0 0 .75-.75ZM18.7 14a.75.75 0 0 0-.75-.75h-3a.75.75 0 0 0 0 1.5h3a.75.75 0 0 0 .75-.75Z"/></svg>
